!!!OTL: Der Knab von Haselach (2-34) S. 108
!!!id: P0907
**kern
*clefG2
*k[b-]
*F:
{16c
16c
16f
=1
8f
16g
16b-
8a
8g
=2
8f}
=3
{16f
16g
8a
16a
16b-
=4
8cc
8cc
8a
16g
16a
=5
8b-
8a
8g}
8r
=6
{4cc
8g
8a
=7
8e
8f
8g
8b-
=8
16a
16g
16f}
=9
{16f
8e
8f
=10
8g
16b-
16g
8a
8g
=11
4f}
16r
==
*-
!!!minrhy: 16
!!!meters: 2/4 ]  ZZ[4
!!!cut: Der Knab von Haselach (2-34) S. 108
!!!reg: Lothringen
!!!trd: PINCK, Louis: Verklingende Weisen, Bd 2, Metz 1928
!!!rhy1: XXX  X_XXX_X_  X_
!!!rhy2: XXX_XX  X_X_X_XX  X_X_X_0_
!!!key: P0907  16  F 2/4 ]  ZZ[4
!!!mod: SECHSTONSKALA DUR ?]  AMBITUS[8
!!!kad: 1211
!!!akz: 11_54_5-73_21_
!!!fot: 'a__as'b__as"
!!!for: 'a__b__c__av_
!!!fok: '^a_^a_Sd_^__
!! PHRAS[VORWIEGEND AUFTAKTIG]
!!!fkt: ???
!! LOTH VKL
!! PR[21] 2K[0] 2G[14] 3K[4] 3G[4] 4A[7] 4Ü[0] 5A[0] 6K[0] 6G[0]
!! 7K[0] 7G[0] 8A[0] MEHR[0] SI[29] ABS[28] SR[14] SP[14]
!! ST[0] 2k[7] 2g[36] 3k[0] 3g[0] 4d[7] 4ü[0] 5d[0] 6k[0] 6g[0]
!! 7k[0] 7g[0] 8d[0] mehr[0] si[50] dm[-21] sr[43] sp[7]
!! 1F[24] 2F[66] 3F[0] 4F[0] LF[0] 2P[10] 3P[0] 4P[0] TRI[0] DF[3] AB[29]
!! TF[0] U3K[0] U3[0] U4[0] U4Ü[0] U5[0] U6K[0] U6[0] U7K[7] U7[0]
!! N1[14] N2K[0] N2[10] N3K[17] N3[0] N4[28] N4Ü[0] N5[24] N6K[0] N6[0]
!!!n7k: 0] N7[0] O1[0] O2K[0] O2[0] O3K[0] O3[0] HÖ[0
